X: 1
T: A Good Night's Sleep
M: 6/8
L: 1/8
R: jig
K: Bmix
|:c|FBF EDE|FBB B2c|dFF BFd|~E3 ABc|
FBF EDE|FBB dfb|gbg ecG|ABA A2:|
|:a|faf ec^A|FBB B2=D|E=GB =~g3|Ace aba|
faf ec^A|FBB dfb|gbg ecG|ABA A2:|
